X: 1
T:There is a Fountain
R:slow march
D:Tola Custy and Cyril O'Donoghue, "Setting Free" , CICD 098, 1994
Z:Paul de Grae  irtrad-l 2001-01-18
M:2/4
L:1/8
Q:1/4=40
K:D
DF|A3 B|A2 d2|Bd2 B|A2 DF|A3 A|BA FD|E4-|E2 DF|
A3 B|A2 d2|Bd2 B|AB de|f4|ed ef|d4-|d2:|:Ad|
f3 f|e2 fe|d4|Bd2 B|A4|BA FD|E4-|E2 DF|
A3 B|A2 d2|Bd2 B|AB de|f4|ed ef|d4-|d2:|
